src/pos-icons/chevron-double-up.svg

<svg height="24" viewBox="0 0 24 24" width="24" xmlns="http://www.w3.org/2000/svg"><path d="m7.41 18.41-1.41-1.41 6-6 6 6-1.41 1.41-4.59-4.58zm0-6-1.41-1.41 6-6 6 6-1.41 1.41-4.59-4.58z"/></svg>

<?xml version="1.0" encoding="UTF-8"?><!DOCTYPE svg PUBLIC "-//W3C//DTD SVG 1.1//EN" "http://www.w3.org/Graphics/SVG/1.1/DTD/svg11.dtd"><svg xmlns="http://www.w3.org/2000/svg" xmlns:xlink="http://www.w3.org/1999/xlink" version="1.1" id="mdi-chevron-double-up" width="24" height="24" viewBox="0 0 24 24"><path d="M7.41,18.41L6,17L12,11L18,17L16.59,18.41L12,13.83L7.41,18.41M7.41,12.41L6,11L12,5L18,11L16.59,12.41L12,7.83L7.41,12.41Z" /></svg>
